!!!OTL-incipit: ACH, ACH, ICH ARMES KLOSTERFRAEULEIN!
!!!ARE: Europa, Mitteleuropa, Deutschland
!!!SCT: Z0109
!!!TXL: @@DE
!!!YEM: Copyright 1995, estate of Helmut Schaffrath.
**kern	**text
*ICvox	*
*M4/4	*
*met(c)	*
*k[f#]	*
*G:	*
!LO:TX:a:t=Altes Volkslied.	!
{4b/	Ach,
=1	=1
4.dd	ach,
8cc	ich
8b/	ar-
8a	-mes
8g	Kloſter-
8a	.
=2	=2
(4b	-Fräu-
4ee)	.
4dd	-lein!
8r}	.
{8dd	o
=3	=3
(8ddL	Mut-
8ggJ)	.
8ff#	-ter,
8ee	was
4dd	haſt
8cc#	du
8cc#	ge-
=4	=4
2dd	-macht!
4r}	.
{4dd	Lenʒ
=5	=5
(4dd	ging
8ccn)	.
8b	am
4dd	Git-
8cc	-ter
8b	vor-
=6	=6
2ee	-ü-
4dd}	-ber,
{4cc	hat
=7	=7
4.b/	mir
8b/	kein
4a	Blüm-
8dd	-lein
8cc	ge-
=8	=8
2b	-bracht!
4r}	.
{4dd	Lenʒ
=9	=9
(4dd	ging
8cc)	.
8b	am
4dd	Git-
8cc	-ter
8b	vor-
=10	=10
2gg	-ü-
4ff#}	-ber,
{4ee	hat
=11	=11
(4dd	mir
8cc)	.
8b	kein
(8aL	Blüm-
8eeJ)	.
8dd	-lein
8cc	ge-
=12	=12
2b	-bracht.
4r}	.
==	==
!!!AGN: Sagen - Lied, Romanze
!!!ONB: ESAC (Essen Associative Code) Database: ZUCCAL
!!!AMT: simple quadruple
!!!AIN: vox
!!!EED: Helmut Schaffrath
!!!EEV: 1.0
!!!GTL: I. Ernste Romanzen und Sagen.
!!!URL-scan: https://www.digitale-sammlungen.de/de/view/bsb11160571?page=210
!!!ENC: Anna Maria Matuszewska
!!!EEV: 2025/01/27
*-	*-
